img/svg/icon2.svg

<svg xmlns="http://www.w3.org/2000/svg" preserveAspectRatio="xMidYMid" width="49" height="55" viewBox="0 0 49 55"><defs><style>.cls-2 { fill: #000000; stroke: #ff4700; stroke-linejoin: round; stroke-width: 1px; fill-opacity: 0; }</style></defs><path d="M44.768 51.5h-40.536c-.404 0-.732-.325-.732-.727v-3.203c0-.406.328-.687.732-.687h2.84v-42.648c0-.406.327-.735.732-.735h33.391c.405 0 .733.329.733.735v42.648h2.839c.405 0 .733.326.733.728v3.162c0 .402-.328.727-.732.727zm-36.232-4.617h31.927v-41.914h-31.927v41.914zm29.73-1.554h-12.302c-.404 0-.732-.329-.732-.735v-37.617c0-.405.328-.734.732-.734h12.302c.405 0 .732.329.732.734v37.617c.001.406-.327.735-.732.735zm-11.57-1.47h10.838v-4.5c-.737-.884-3.353-4.35-5.47-11.301-2.123-6.974-3.111-17.549-3.344-20.346h-2.024v36.147zm3.495-36.147c.251 2.919 1.249 13.268 3.274 19.916 1.383 4.54 2.984 7.529 4.069 9.22v-29.136h-7.343zm-7.156 37.617h-12.302c-.404 0-.732-.329-.732-.735v-37.617c0-.405.328-.734.732-.734h12.302c.405 0 .732.329.732.734v37.617c0 .406-.327.735-.732.735zm-11.57-1.47h10.838v-36.147h-2.023c-.233 2.797-1.221 13.372-3.345 20.345-2.117 6.952-4.732 10.418-5.47 11.302v4.5zm2.097-36.147h-2.097v29.129c1.088-1.699 2.693-4.693 4.07-9.213 2.024-6.648 3.022-16.997 3.274-19.916h-3.777" id="path-1" class="cls-2" fill-rule="evenodd"/></svg>

<svg xmlns="http://www.w3.org/2000/svg" xmlns:xlink="http://www.w3.org/1999/xlink" preserveAspectRatio="xMidYMid" width="49" height="55" viewBox="0 0 49 55">
  <defs>
    <style>

      .cls-2 {
        fill: #000000;
        stroke: #ff4700;
        stroke-linejoin: round;
        stroke-width: 1px;
        fill-opacity: 0;
      }
    </style>
  </defs>
  <path d="M44.768,51.500 C44.768,51.500 4.232,51.500 4.232,51.500 C3.828,51.500 3.500,51.175 3.500,50.773 C3.500,50.773 3.500,47.570 3.500,47.570 C3.500,47.164 3.828,46.883 4.232,46.883 C4.232,46.883 7.072,46.883 7.072,46.883 C7.072,46.883 7.072,4.235 7.072,4.235 C7.072,3.829 7.399,3.500 7.804,3.500 C7.804,3.500 41.195,3.500 41.195,3.500 C41.600,3.500 41.928,3.829 41.928,4.235 C41.928,4.235 41.928,46.883 41.928,46.883 C41.928,46.883 44.767,46.883 44.767,46.883 C45.172,46.883 45.500,47.209 45.500,47.611 C45.500,47.611 45.500,50.773 45.500,50.773 C45.500,51.175 45.172,51.500 44.768,51.500 ZM8.536,46.883 C8.536,46.883 40.463,46.883 40.463,46.883 C40.463,46.883 40.463,4.969 40.463,4.969 C40.463,4.969 8.536,4.969 8.536,4.969 C8.536,4.969 8.536,46.883 8.536,46.883 ZM38.266,45.329 C38.266,45.329 25.964,45.329 25.964,45.329 C25.560,45.329 25.232,45.000 25.232,44.594 C25.232,44.594 25.232,6.977 25.232,6.977 C25.232,6.572 25.560,6.243 25.964,6.243 C25.964,6.243 29.391,6.243 29.391,6.243 C29.394,6.243 29.398,6.243 29.403,6.243 C29.403,6.243 32.077,6.243 32.077,6.243 C32.083,6.243 32.088,6.243 32.093,6.243 C32.093,6.243 34.358,6.243 34.358,6.243 C34.361,6.243 34.363,6.243 34.364,6.243 C34.364,6.243 38.266,6.243 38.266,6.243 C38.671,6.243 38.998,6.572 38.998,6.977 C38.998,6.977 38.998,39.082 38.998,39.082 C38.998,39.083 38.998,39.084 38.998,39.085 C38.998,39.085 38.998,44.594 38.998,44.594 C38.999,45.000 38.671,45.329 38.266,45.329 ZM26.696,43.859 C26.696,43.859 37.534,43.859 37.534,43.859 C37.534,43.859 37.534,39.359 37.534,39.359 C36.797,38.475 34.181,35.009 32.064,28.058 C29.941,21.084 28.953,10.509 28.720,7.712 C28.720,7.712 26.696,7.712 26.696,7.712 C26.696,7.712 26.696,43.859 26.696,43.859 C26.696,43.859 26.696,43.859 26.696,43.859 ZM30.191,7.712 C30.442,10.631 31.440,20.980 33.465,27.628 C34.848,32.168 36.449,35.157 37.534,36.848 C37.534,36.848 37.534,7.712 37.534,7.712 C37.534,7.712 30.191,7.712 30.191,7.712 ZM23.035,45.329 C23.035,45.329 10.733,45.329 10.733,45.329 C10.329,45.329 10.001,45.000 10.001,44.594 C10.001,44.594 10.001,39.084 10.001,39.084 C10.001,39.084 10.001,39.083 10.001,39.082 C10.001,39.082 10.001,6.977 10.001,6.977 C10.001,6.572 10.329,6.243 10.733,6.243 C10.733,6.243 14.342,6.243 14.342,6.243 C14.346,6.243 14.350,6.243 14.355,6.243 C14.355,6.243 16.617,6.243 16.617,6.243 C16.622,6.243 16.627,6.243 16.632,6.243 C16.632,6.243 19.596,6.243 19.596,6.243 C19.601,6.243 19.605,6.243 19.609,6.243 C19.609,6.243 23.035,6.243 23.035,6.243 C23.440,6.243 23.767,6.572 23.767,6.977 C23.767,6.977 23.767,44.594 23.767,44.594 C23.767,45.000 23.440,45.329 23.035,45.329 ZM11.465,43.859 C11.465,43.859 22.303,43.859 22.303,43.859 C22.303,43.859 22.303,7.712 22.303,7.712 C22.303,7.712 20.280,7.712 20.280,7.712 C20.047,10.509 19.059,21.084 16.935,28.057 C14.818,35.009 12.203,38.475 11.465,39.359 C11.465,39.359 11.465,43.859 11.465,43.859 C11.465,43.859 11.465,43.859 11.465,43.859 ZM13.562,7.712 C13.562,7.712 11.465,7.712 11.465,7.712 C11.465,7.712 11.465,7.712 11.465,7.712 C11.465,7.712 11.465,36.841 11.465,36.841 C12.553,35.142 14.158,32.148 15.535,27.628 C17.559,20.980 18.557,10.631 18.809,7.712 C18.809,7.712 15.032,7.712 15.032,7.712 " id="path-1" class="cls-2" fill-rule="evenodd"/>
</svg>
